images/portal/5875.svg

<?xml version="1.0" standalone="no"?><!DOCTYPE svg PUBLIC "-//W3C//DTD SVG 1.1//EN" "http://www.w3.org/Graphics/SVG/1.1/DTD/svg11.dtd"><svg xmlns:xlink="http://www.w3.org/1999/xlink" version="1.1" class="highcharts-root" style="font-family:arial;font-size:12px;" xmlns="http://www.w3.org/2000/svg" viewBox="0 0 320 208"><desc>Created with Highstock 5.0.14</desc><defs><clipPath id="highcharts-d3r8gkn-6"><rect x="0" y="0" width="273" height="124" fill="none"></rect></clipPath><clipPath id="highcharts-d3r8gkn-7"><rect x="0" y="0" width="273" height="124" fill="none"></rect></clipPath></defs><rect fill="#fbfbfb" class="highcharts-background" x="0" y="0" width="320" height="208" rx="0" ry="0"></rect><rect fill="none" class="highcharts-plot-background" x="44" y="43" width="273" height="124"></rect><g class="highcharts-pane-group"></g><g class="highcharts-grid highcharts-xaxis-grid "><path fill="none" class="highcharts-grid-line" d="M 60.5 43 L 60.5 167" opacity="1"></path><path fill="none" class="highcharts-grid-line" d="M 88.5 43 L 88.5 167" opacity="1"></path><path fill="none" class="highcharts-grid-line" d="M 116.5 43 L 116.5 167" opacity="1"></path><path fill="none" class="highcharts-grid-line" d="M 144.5 43 L 144.5 167" opacity="1"></path><path fill="none" class="highcharts-grid-line" d="M 172.5 43 L 172.5 167" opacity="1"></path><path fill="none" class="highcharts-grid-line" d="M 201.5 43 L 201.5 167" opacity="1"></path><path fill="none" class="highcharts-grid-line" d="M 229.5 43 L 229.5 167" opacity="1"></path><path fill="none" class="highcharts-grid-line" d="M 257.5 43 L 257.5 167" opacity="1"></path><path fill="none" class="highcharts-grid-line" d="M 285.5 43 L 285.5 167" opacity="1"></path><path fill="none" class="highcharts-grid-line" d="M 313.5 43 L 313.5 167" opacity="1"></path></g><g class="highcharts-grid highcharts-yaxis-grid "><path fill="none" stroke="#B9CFD7" stroke-width="0.5" class="highcharts-grid-line" d="M 44 167.25 L 317 167.25" opacity="1"></path><path fill="none" stroke="#B9CFD7" stroke-width="0.5" class="highcharts-grid-line" d="M 44 105.25 L 317 105.25" opacity="1"></path><path fill="none" stroke="#B9CFD7" stroke-width="0.5" class="highcharts-grid-line" d="M 44 42.75 L 317 42.75" opacity="1"></path></g><rect fill="none" class="highcharts-plot-border" x="44" y="43" width="273" height="124"></rect><g class="highcharts-axis highcharts-xaxis "><path fill="none" class="highcharts-axis-line" stroke="#B9CFD7" stroke-width="0.5" d="M 44 167.25 L 317 167.25"></path></g><g class="highcharts-axis highcharts-yaxis "><path fill="none" class="highcharts-axis-line" d="M 44 43 L 44 167"></path></g><g class="highcharts-series-group"><g class="highcharts-series highcharts-series-0 highcharts-line-series highcharts-color-undefined " transform="translate(44,43) scale(1 1)" clip-path="url(#highcharts-d3r8gkn-7)"><path fill="none" d="M 2.676470588236 24.303999999999988 L 16.763157894738 23.560000000000002 L 30.849845201239 22.567999999999998 L 44.93653250774 22.051656867264555 L 185.80340557276 19.513378961178162 L 199.89009287926 19.766834597949924 L 213.97678018576 19.866843921879052 L 228.06346749226 19.82912597886633 L 242.15015479876 20.58399999999999 L 256.23684210526 21.198439146899517 L 270.32352941176 21.650702814447996" class="highcharts-graph" stroke="#83522E" stroke-width="2" stroke-linejoin="round" stroke-linecap="round"></path></g><g class="highcharts-markers highcharts-series-0 highcharts-line-series highcharts-color-undefined " transform="translate(44,43) scale(1 1)" clip-path="none"><path fill="#83522E" d="M 6 24 A 4 4 0 1 1 5.999998000000167 23.996000000666665 Z" class="highcharts-point"></path><path fill="#83522E" d="M 20 24 A 4 4 0 1 1 19.99999800000017 23.996000000666665 Z" class="highcharts-point"></path><path fill="#83522E" d="M 34 23 A 4 4 0 1 1 33.99999800000017 22.996000000666665 Z" class="highcharts-point"></path><path fill="#83522E" d="M 48 22 A 4 4 0 1 1 47.99999800000017 21.996000000666665 Z" class="highcharts-point"></path><path fill="#83522E" d="M 189 20 A 4 4 0 1 1 188.99999800000018 19.996000000666665 Z" class="highcharts-point"></path><path fill="#83522E" d="M 203 20 A 4 4 0 1 1 202.99999800000018 19.996000000666665 Z" class="highcharts-point"></path><path fill="#83522E" d="M 217 20 A 4 4 0 1 1 216.99999800000018 19.996000000666665 Z" class="highcharts-point"></path><path fill="#83522E" d="M 232 20 A 4 4 0 1 1 231.99999800000018 19.996000000666665 Z" class="highcharts-point"></path><path fill="#83522E" d="M 246 21 A 4 4 0 1 1 245.99999800000018 20.996000000666665 Z" class="highcharts-point"></path><path fill="#83522E" d="M 260 21 A 4 4 0 1 1 259.9999980000002 20.996000000666665 Z" class="highcharts-point"></path><path fill="#83522E" d="M 274 22 A 4 4 0 1 1 273.9999980000002 21.996000000666665 Z" class="highcharts-point"></path></g></g><text x="3" text-anchor="start" class="highcharts-title" style="color:#000000;font-size:10px;font-weight:bold;fill:#000000;" y="22"><tspan>Mittlere Wohnfläche pro Person</tspan></text><g class="highcharts-data-labels highcharts-series-0 highcharts-line-series highcharts-color-undefined " visibility="visible" transform="translate(44,43) scale(1 1)"><g class="highcharts-label highcharts-data-label highcharts-data-label-color-undefined " transform="translate(-5,24)"><text x="5" style="font-size:10px;font-weight:normal;color:#000000;fill:#000000;" y="15"><tspan x="5" y="15" class="highcharts-text-outline" fill="#FFFFFF" stroke="#FFFFFF" stroke-width="2px" stroke-linejoin="round" style="">1997:</tspan><tspan x="5" dy="13" class="highcharts-text-outline" fill="#FFFFFF" stroke="#FFFFFF" stroke-width="2px" stroke-linejoin="round" style="">40,2</tspan><tspan x="5" y="15">1997:</tspan><tspan x="5" dy="13">40,2</tspan></text></g><g class="highcharts-label highcharts-data-label highcharts-data-label-color-undefined " transform="translate(12,14)"><text x="5" style="font-size:10px;font-weight:normal;color:#000000;fill:#000000;" y="15"></text></g><g class="highcharts-label highcharts-data-label highcharts-data-label-color-undefined " transform="translate(26,13)"><text x="5" style="font-size:10px;font-weight:normal;color:#000000;fill:#000000;" y="15"></text></g><g class="highcharts-label highcharts-data-label highcharts-data-label-color-undefined " transform="translate(40,12)"><text x="5" style="font-size:10px;font-weight:normal;color:#000000;fill:#000000;" y="15"></text></g><g class="highcharts-label highcharts-data-label highcharts-data-label-color-undefined " transform="translate(181,10)"><text x="5" style="font-size:10px;font-weight:normal;color:#000000;fill:#000000;" y="15"></text></g><g class="highcharts-label highcharts-data-label highcharts-data-label-color-undefined " transform="translate(195,10)"><text x="5" style="font-size:10px;font-weight:normal;color:#000000;fill:#000000;" y="15"></text></g><g class="highcharts-label highcharts-data-label highcharts-data-label-color-undefined " transform="translate(209,10)"><text x="5" style="font-size:10px;font-weight:normal;color:#000000;fill:#000000;" y="15"></text></g><g class="highcharts-label highcharts-data-label highcharts-data-label-color-undefined " transform="translate(223,10)"><text x="5" style="font-size:10px;font-weight:normal;color:#000000;fill:#000000;" y="15"></text></g><g class="highcharts-label highcharts-data-label highcharts-data-label-color-undefined " transform="translate(237,11)"><text x="5" style="font-size:10px;font-weight:normal;color:#000000;fill:#000000;" y="15"></text></g><g class="highcharts-label highcharts-data-label highcharts-data-label-color-undefined " transform="translate(251,11)"><text x="5" style="font-size:10px;font-weight:normal;color:#000000;fill:#000000;" y="15"></text></g><g class="highcharts-label highcharts-data-label highcharts-data-label-color-undefined " transform="translate(243,22)"><text x="5" style="font-size:10px;font-weight:normal;color:#000000;fill:#000000;" y="15"><tspan x="5" y="15" class="highcharts-text-outline" fill="#FFFFFF" stroke="#FFFFFF" stroke-width="2px" stroke-linejoin="round" style="">2016:</tspan><tspan x="5" dy="13" class="highcharts-text-outline" fill="#FFFFFF" stroke="#FFFFFF" stroke-width="2px" stroke-linejoin="round" style="">41,3</tspan><tspan x="5" y="15">2016:</tspan><tspan x="5" dy="13">41,3</tspan></text></g></g><g class="highcharts-axis-labels highcharts-xaxis-labels "><text x="63.59158501948371" style="color:#000000;cursor:default;font-size:10;fill:#000000;" text-anchor="end" transform="translate(0,0) rotate(-45 63.59158501948371 183)" y="183" opacity="1"><tspan>1998</tspan></text><text x="91.76495963248664" style="color:#000000;cursor:default;font-size:10;fill:#000000;" text-anchor="end" transform="translate(0,0) rotate(-45 91.76495963248664 183)" y="183" opacity="1"><tspan>2000</tspan></text><text x="119.93833424548957" style="color:#000000;cursor:default;font-size:10;fill:#000000;" text-anchor="end" transform="translate(0,0) rotate(-45 119.93833424548957 183)" y="183" opacity="1"><tspan>2002</tspan></text><text x="148.1117088584925" style="color:#000000;cursor:default;font-size:10;fill:#000000;" text-anchor="end" transform="translate(0,0) rotate(-45 148.1117088584925 183)" y="183" opacity="1"><tspan>2004</tspan></text><text x="176.28508347149545" style="color:#000000;cursor:default;font-size:10;fill:#000000;" text-anchor="end" transform="translate(0,0) rotate(-45 176.28508347149545 183)" y="183" opacity="1"><tspan>2006</tspan></text><text x="204.4584580844984" style="color:#000000;cursor:default;font-size:10;fill:#000000;" text-anchor="end" transform="translate(0,0) rotate(-45 204.4584580844984 183)" y="183" opacity="1"><tspan>2008</tspan></text><text x="232.63183269750132" style="color:#000000;cursor:default;font-size:10;fill:#000000;" text-anchor="end" transform="translate(0,0) rotate(-45 232.63183269750132 183)" y="183" opacity="1"><tspan>2010</tspan></text><text x="260.80520731050433" style="color:#000000;cursor:default;font-size:10;fill:#000000;" text-anchor="end" transform="translate(0,0) rotate(-45 260.80520731050433 183)" y="183" opacity="1"><tspan>2012</tspan></text><text x="288.97858192350725" style="color:#000000;cursor:default;font-size:10;fill:#000000;" text-anchor="end" transform="translate(0,0) rotate(-45 288.97858192350725 183)" y="183" opacity="1"><tspan>2014</tspan></text><text x="317.15195653651017" style="color:#000000;cursor:default;font-size:10;fill:#000000;" text-anchor="end" transform="translate(0,0) rotate(-45 317.15195653651017 183)" y="183" opacity="1"><tspan>2016</tspan></text></g><g class="highcharts-axis-labels highcharts-yaxis-labels "><text x="29" style="color:#000000;cursor:default;font-size:10;fill:#000000;" text-anchor="end" transform="translate(0,0)" y="173" opacity="1"><tspan>0 m²</tspan></text><text x="29" style="color:#000000;cursor:default;font-size:10;fill:#000000;" text-anchor="end" transform="translate(0,0)" y="111" opacity="1"><tspan>25 m²</tspan></text><text x="29" style="color:#000000;cursor:default;font-size:10;fill:#000000;" text-anchor="end" transform="translate(0,0)" y="49" opacity="1"><tspan>50 m²</tspan></text></g><text x="10" class="highcharts-credits" text-anchor="start" style="cursor:default;color:#000000;font-size:10px;fill:#000000;" y="183"><tspan>Quelle: Statistisches Amt Basel-Stadt, Bevölkerungsstatistik;</tspan><tspan x="10" dy="13">Statistisches Amt Basel-Stadt, Gebäude- und Wohnungsstatistik</tspan></text></svg>

<svg class="highcharts-root" xmlns="http://www.w3.org/2000/svg" viewBox="0 0 320 208" font-family="arial" font-size="12">
    <defs>
        <clipPath id="a">
            <path fill="none" d="M0 0h273v124H0z"/>
        </clipPath>
    </defs>
    <rect fill="#fbfbfb" class="highcharts-background" width="320" height="208" rx="0" ry="0"/>
    <path fill="none" class="highcharts-plot-background" d="M44 43h273v124H44z"/>
    <g class="highcharts-grid highcharts-xaxis-grid">
        <path fill="none" class="highcharts-grid-line" d="M60.5 43v124m28-124v124m28-124v124m28-124v124m28-124v124m29-124v124m28-124v124m28-124v124m28-124v124m28-124v124"/>
    </g>
    <g class="highcharts-grid highcharts-yaxis-grid">
        <path fill="none" stroke="#B9CFD7" stroke-width=".5" class="highcharts-grid-line" d="M44 167.25h273m-273-62h273M44 42.75h273"/>
    </g>
    <path fill="none" class="highcharts-plot-border" d="M44 43h273v124H44z"/>
    <g class="highcharts-axis highcharts-xaxis">
        <path fill="none" class="highcharts-axis-line" stroke="#B9CFD7" stroke-width=".5" d="M44 167.25h273"/>
    </g>
    <g class="highcharts-axis highcharts-yaxis">
        <path fill="none" class="highcharts-axis-line" d="M44 43v124"/>
    </g>
    <g class="highcharts-series-group">
        <g class="highcharts-series highcharts-series-0 highcharts-line-series highcharts-color-undefined" transform="translate(44 43)" clip-path="url(#a)">
            <path fill="none" d="M2.676 24.304l14.087-.744 14.087-.992 14.087-.516 140.866-2.539 14.087.254 14.087.1 14.086-.038 14.087.755 14.087.614 14.087.453" class="highcharts-graph" stroke="#83522E" stroke-width="2" stroke-linejoin="round" stroke-linecap="round"/>
        </g>
        <g class="highcharts-markers highcharts-series-0 highcharts-line-series highcharts-color-undefined">
            <path fill="#83522E" d="M50 67a4 4 0 1 1 0-.004zm14 0a4 4 0 1 1 0-.004zm14-1a4 4 0 1 1 0-.004zm14-1a4 4 0 1 1 0-.004zm141-2a4 4 0 1 1 0-.004zm14 0a4 4 0 1 1 0-.004zm14 0a4 4 0 1 1 0-.004zm15 0a4 4 0 1 1 0-.004zm14 1a4 4 0 1 1 0-.004zm14 0a4 4 0 1 1 0-.004zm14 1a4 4 0 1 1 0-.004z" class="highcharts-point"/>
        </g>
    </g>
    <text x="3" class="highcharts-title" y="22" color="#000" font-size="10" font-weight="700">
        <tspan>Mittlere Wohnfläche pro Person</tspan>
    </text>
    <g class="highcharts-data-labels highcharts-series-0 highcharts-line-series highcharts-color-undefined">
        <text x="5" y="15" font-size="10" font-weight="400" color="#000" transform="translate(39 67)" class="highcharts-label highcharts-data-label highcharts-data-label-color-undefined">
            <tspan x="5" y="15" class="highcharts-text-outline" fill="#FFF" stroke="#FFF" stroke-width="2" stroke-linejoin="round">1997:</tspan><tspan x="5" dy="13" class="highcharts-text-outline" fill="#FFF" stroke="#FFF" stroke-width="2" stroke-linejoin="round">40,2</tspan><tspan x="5" y="15">1997:</tspan><tspan x="5" dy="13">40,2</tspan>
        </text>
        <text x="5" y="15" font-size="10" font-weight="400" color="#000" transform="translate(287 65)" class="highcharts-label highcharts-data-label highcharts-data-label-color-undefined">
            <tspan x="5" y="15" class="highcharts-text-outline" fill="#FFF" stroke="#FFF" stroke-width="2" stroke-linejoin="round">2016:</tspan><tspan x="5" dy="13" class="highcharts-text-outline" fill="#FFF" stroke="#FFF" stroke-width="2" stroke-linejoin="round">41,3</tspan><tspan x="5" y="15">2016:</tspan><tspan x="5" dy="13">41,3</tspan>
        </text>
    </g>
    <g class="highcharts-axis-labels highcharts-xaxis-labels" text-anchor="end" color="#000" cursor="default" font-size="10">
        <text x="63.592" transform="rotate(-45 63.592 183)" y="183">
            <tspan>1998</tspan>
        </text>
        <text x="91.765" transform="rotate(-45 91.765 183)" y="183">
            <tspan>2000</tspan>
        </text>
        <text x="119.938" transform="rotate(-45 119.938 183)" y="183">
            <tspan>2002</tspan>
        </text>
        <text x="148.112" transform="rotate(-45 148.112 183)" y="183">
            <tspan>2004</tspan>
        </text>
        <text x="176.285" transform="rotate(-45 176.285 183)" y="183">
            <tspan>2006</tspan>
        </text>
        <text x="204.458" transform="rotate(-45 204.458 183)" y="183">
            <tspan>2008</tspan>
        </text>
        <text x="232.632" transform="rotate(-45 232.632 183)" y="183">
            <tspan>2010</tspan>
        </text>
        <text x="260.805" transform="rotate(-45 260.805 183)" y="183">
            <tspan>2012</tspan>
        </text>
        <text x="288.979" transform="rotate(-45 288.979 183)" y="183">
            <tspan>2014</tspan>
        </text>
        <text x="317.152" transform="rotate(-45 317.152 183)" y="183">
            <tspan>2016</tspan>
        </text>
    </g>
    <g class="highcharts-axis-labels highcharts-yaxis-labels" text-anchor="end" color="#000" cursor="default" font-size="10">
        <text x="29" y="173">
            <tspan>0 m²</tspan>
        </text>
        <text x="29" y="111">
            <tspan>25 m²</tspan>
        </text>
        <text x="29" y="49">
            <tspan>50 m²</tspan>
        </text>
    </g>
    <text x="10" class="highcharts-credits" y="183" cursor="default" color="#000" font-size="10">
        <tspan>Quelle: Statistisches Amt Basel-Stadt, Bevölkerungsstatistik;</tspan><tspan x="10" dy="13">Statistisches Amt Basel-Stadt, Gebäude- und Wohnungsstatistik</tspan>
    </text>
</svg>
